X: 5983
T: Can You Dance A Tobacco Hill
R: reel
M: 4/4
K: Dmajor
Addc d2dB|AddA BAGF|Addc d2dA|ABAG FAD2|
Addc d2dB|AddA BAGF|Addc d2dA|ABAG FAD2:|
A2FD G3B|A2FD EFGE|A2FD G3B|Aceg fddB|
A2FD G3B|A2FD EFGE|A2FD G3B|Aceg fdd2:|

